X:0956
T:Always Pretty.
M:2/4
L:1/8
Q:1/4=144
Z:Jack Campin * www.campin.me.uk * 2009
K:D
A|dcdA|BGAF|Ddfd| ce`````Ac|dcdA|fgfd|Bedc|d2D:|
f|edce|fddf|edcB|(cd/e/) Ad|edce|fddf|fdcB|cAAB|
  dcdA|BGAF|Ddfd| ce`````Ac|dcdA|GBAc|Bedc|d2d|]
<end>
<start>
